X: 29
T: A dar gur
L: 1/16
K: C
z2> C2 C2 C E [I:setbarnb 1]| 
D2D6- | 
D2> D2 G2 A B | 
c2 B2 B2 G B | 
A2 F2 A2 F A | 
E2 C ED4 | 
C D2 D E> F E G F2 D D | 
[M:2/4]D8- | 
D8- | 
D2z6 | 
z2> C2 C2 C2 | 
D3 C/ E/D4- | 
D2> G2 G2 A B | 
c d c ed4 | 
A4A2 B c | 
d2 c ed4 | 
c2 B d c2 A A | 
A8- | 
A8 | 
z4z3 A | 
c8- | 
c8- | 
c2> A2 A2 B2 | 
c2 B2 G3 B | 
A2> F2 F2 F2 | 
A2 F> G E2 C3/ E/ | 
D4C2 D D | 
E> F E G F2 D D | 
D8- | 
D8- | 
D2z6 | 
z4z3 E | 
F8- | 
F8- | 
F2> G2 F2 E2 | 
E4D2 E2 | 
F2 E> FE4 | 
C4D3 D | 
E F E G F2 D2 | 
D8- | 
D8- | 
D2z6 | 
z4z3 E | 
F8- | 
F8- | 
F2> G2 F2 E2- | 
E2> E2 D2 E2 | 
F2 E> FE4 | 
C4D3 D | 
E> F E G F2 D2 | 
D8- | 
D8- | 
D2z6 |]

@@@ Tune index: 8697
